docs/images/logo.svg

<?xml version="1.0"?>
<svg width="400" height="400" xmlns="http://www.w3.org/2000/svg" xmlns:svg="http://www.w3.org/2000/svg" xmlns:xlink="http://www.w3.org/1999/xlink">
 <!-- Created with SVG-edit - https://github.com/SVG-Edit/svgedit-->
 <defs>
  <symbol height="368.35" id="svg_1" version="1.1" viewBox="0 0 123.99661620091138 122.78497112214427" width="371.99" xmlns="http://www.w3.org/2000/svg">
   <!-- svg-source:excalidraw -->
   <defs>
    <style class="style-fonts">@font-face {
        font-family: &quot;Virgil&quot;;
        src: url(&quot;https://excalidraw.com/Virgil.woff2&quot;);
      }
      @font-face {
        font-family: &quot;Cascadia&quot;;
        src: url(&quot;https://excalidraw.com/Cascadia.woff2&quot;);
      }</style>
   </defs>
   <g stroke-linecap="round" transform="translate(10 10) rotate(0 51.99830810045569 51.392485561072135)">
    <path d="m25.7,0l58.62,0.4l5.22,1.21l4.42,2l3.61,2.81l2.81,3.62l2.01,4.41l1.61,11.25l-0.4,57.41l-1.21,5.22l-2.01,4.42l-2.81,3.61l-3.61,2.81l-4.42,2.01l-11.24,1.6l-58.63,-0.4l-5.22,-1.2l-4.41,-2.01l-3.62,-2.81l-2.81,-3.61l-2,-4.42l-1.21,-5.22l-0.4,-6.02l0,-51.39l1.61,-11.25l2,-4.41l2.81,-3.62l3.62,-2.81l4.41,-2l11.25,-1.61" fill="#000" stroke-width="0"/>
    <path d="m25.7,0m0,0c14.83,0 29.67,0 52.6,0m-52.6,0c12.72,0 25.45,0 52.6,0m0,0c17.13,0 25.7,8.57 25.7,25.7m-25.7,-25.7c17.13,0 25.7,8.57 25.7,25.7m0,0c0,20.5 0,41.01 0,51.39m0,-51.39c0,14.02 0,28.04 0,51.39m0,0c0,17.13 -8.57,25.69 -25.7,25.69m25.7,-25.69c0,17.13 -8.57,25.69 -25.7,25.69m0,0c-14.64,0 -29.27,0 -52.6,0m52.6,0c-19.95,0 -39.9,0 -52.6,0m0,0c-17.13,0 -25.7,-8.56 -25.7,-25.69m25.7,25.69c-17.13,0 -25.7,-8.56 -25.7,-25.69m0,0c0,-18.74 0,-37.48 0,-51.39m0,51.39c0,-15.5 0,-31 0,-51.39m0,0c0,-17.13 8.57,-25.7 25.7,-25.7m-25.7,25.7c0,-17.13 8.57,-25.7 25.7,-25.7" fill="none" stroke="#000000" stroke-width="4"/>
   </g>
   <g stroke-linecap="round" transform="translate(44.622818284708046 47.81329445482879) rotate(0 18.86934451369234 18.86934451369234)">
    <path d="m2.92,-3.26c6.85,4.74 21.46,0.5 32.03,4.14m-36.88,0.19c10.77,-2.7 18.93,-3.21 39.04,-1.99m3.83,1.42c-3.62,6.37 -0.96,22.84 -2.22,39.76m0.86,-41.95c-2.95,15.04 -0.81,30.15 -1.51,41.36m-2.18,-4.4c-9.59,-0.76 -20.74,0.41 -35.74,2.17m38.63,-1.18c-14.7,1.34 -32.57,0.79 -38.44,3.32m0.72,-4.72c-3.47,-8.14 -1.24,-19.22 -3.97,-31.55m4.22,34.28c-1.45,-11.66 -1.96,-22.19 -0.56,-39.2" fill="none" stroke="#ffffff" stroke-width="4"/>
   </g>
   <g stroke-linecap="round">
    <g transform="translate(44.622818284708046 13.101773490501728) rotate(0 -0.6029191958150477 36.2567775626967)">
     <path d="m-2.84,3.88c-1.34,24.76 0.68,52.32 4.88,66.87m-3.95,-69.97c3.72,25.52 2.57,54.85 1.14,70.96" fill="none" stroke="#ffffff" stroke-width="4"/>
    </g>
   </g>
   <mask/>
   <g stroke-linecap="round" transform="translate(54.71337849491101 59.518350457459746) rotate(0 2.0181120420420484 2.4217359901467717)">
    <path d="m-0.34,0.08c1.12,-0.77 2.28,0.19 4.87,-0.35m-4.42,0.34c1.26,0.02 2.69,-0.16 3.85,-0.31m0.02,0.34c0.69,0.72 0.08,1.37 -0.42,4.21m0.85,-4.49c-0.12,1.61 -0.58,3.81 0.03,4.8m-0.55,0.26c-1.33,0.54 -2,-0.39 -4.56,0.72m5.08,-0.38c-1.79,-0.03 -3.4,-0.22 -4.51,-0.75m0.78,0.61c-1.46,-1.44 -1.46,-4.24 0.28,-4.97m-0.87,5.1c-0.11,-1.51 0.25,-2.85 0.24,-5.15" fill="none" stroke="#ffffff" stroke-width="4"/>
   </g>
   <g stroke-linecap="round" transform="translate(67.42749051856663 59.11470341389395) rotate(0 1.91720797963535 2.219927865337013)">
    <path d="m-0.45,0.3c0.96,-0.3 2.54,0.22 4.01,-0.31m-3.41,-0.32c0.8,0.67 1.31,0.64 3.52,0.23m-0.13,0.35c0.68,1.24 0.41,2.62 0.89,4.2m-0.24,-4.03c-0.16,1.12 -0.01,1.96 -0.03,4.07m0.15,0.5c-1.21,-0.09 -2.8,-1.18 -3.88,-1.11m3.41,0.74c-0.94,-0.1 -1.62,-0.15 -3.59,0.12m-0.1,0.04c-0.6,-2.19 -0.5,-3.1 -0.59,-4.52m0.44,4.38c0.16,-1.77 0.23,-3.93 -0.17,-4.53" fill="none" stroke="#ffffff" stroke-width="4"/>
   </g>
  </symbol>
 </defs>
 <g class="layer">
  <title>Layer 1</title>
  <use id="svg_3" transform="matrix(1.2219 0 0 1.2219 197.248 125.36)" x="-183.74" xlink:href="#svg_1" y="-122.24"/>
 </g>
</svg>

<svg version="1.1" xmlns="http://www.w3.org/2000/svg" viewBox="0 0 138.30096109824444 139.43001089805875" width="414.90288329473333" height="418.29003269417626">
  <!-- svg-source:excalidraw -->
  
  <defs>
    <style class="style-fonts">
      @font-face {
        font-family: "Virgil";
        src: url("https://excalidraw.com/Virgil.woff2");
      }
      @font-face {
        font-family: "Cascadia";
        src: url("https://excalidraw.com/Cascadia.woff2");
      }
    </style>
    
  </defs>
  <g stroke-linecap="round" transform="translate(10 10) rotate(0 59.15048054912222 59.71500544902938)"><path d="M29.58 0 L95.66 0.46 L101.66 1.85 L106.75 4.16 L110.91 7.39 L114.14 11.55 L116.45 16.64 L117.84 22.64 L118.3 29.58 L117.84 96.79 L116.45 102.79 L114.14 107.88 L110.91 112.04 L106.75 115.27 L101.66 117.58 L95.66 118.97 L88.73 119.43 L22.64 118.97 L16.64 117.58 L11.55 115.27 L7.39 112.04 L4.16 107.88 L1.85 102.79 L0.46 96.79 L0 89.85 L0 29.58 L0.46 22.64 L1.85 16.64 L4.16 11.55 L7.39 7.39 L11.55 4.16 L16.64 1.85 L22.64 0.46 L29.58 0" stroke="none" stroke-width="0" fill="#000"></path><path d="M29.58 0 M29.58 0 C44.19 0, 58.8 0, 88.73 0 M29.58 0 C52.8 0, 76.03 0, 88.73 0 M88.73 0 C108.44 0, 118.3 9.86, 118.3 29.58 M88.73 0 C108.44 0, 118.3 9.86, 118.3 29.58 M118.3 29.58 C118.3 49.94, 118.3 70.31, 118.3 89.85 M118.3 29.58 C118.3 53.42, 118.3 77.26, 118.3 89.85 M118.3 89.85 C118.3 109.57, 108.44 119.43, 88.73 119.43 M118.3 89.85 C118.3 109.57, 108.44 119.43, 88.73 119.43 M88.73 119.43 C65.32 119.43, 41.91 119.43, 29.58 119.43 M88.73 119.43 C75.07 119.43, 61.42 119.43, 29.58 119.43 M29.58 119.43 C9.86 119.43, 0 109.57, 0 89.85 M29.58 119.43 C9.86 119.43, 0 109.57, 0 89.85 M0 89.85 C0 74.89, 0 59.92, 0 29.58 M0 89.85 C0 69.89, 0 49.93, 0 29.58 M0 29.58 C0 9.86, 9.86 0, 29.58 0 M0 29.58 C0 9.86, 9.86 0, 29.58 0" stroke="#000000" stroke-width="4" fill="none"></path></g><g stroke-linecap="round" transform="translate(50.764238802414184 59.127227884573585) rotate(0 18.86934451369234 18.86934451369234)"><path d="M2.92 -3.26 C9.77 1.48, 24.38 -2.76, 34.95 0.88 M-1.93 1.07 C8.84 -1.63, 17 -2.14, 37.11 -0.92 M40.94 0.5 C37.32 6.87, 39.98 23.34, 38.72 40.26 M39.58 -1.69 C36.63 13.35, 38.77 28.46, 38.07 39.67 M35.89 35.27 C26.3 34.51, 15.15 35.68, 0.15 37.44 M38.78 36.26 C24.08 37.6, 6.21 37.05, 0.34 39.58 M1.06 34.86 C-2.41 26.72, -0.18 15.64, -2.91 3.31 M1.31 37.59 C-0.14 25.93, -0.65 15.4, 0.75 -1.61" stroke="#ffffff" stroke-width="4" fill="none"></path></g><g stroke-linecap="round"><g transform="translate(50.764238802414184 24.41570692024652) rotate(0 -0.6029191958150477 36.2567775626967)"><path d="M-2.84 3.88 C-4.18 28.64, -2.16 56.2, 2.04 70.75 M-1.91 0.78 C1.81 26.3, 0.66 55.63, -0.77 71.74" stroke="#ffffff" stroke-width="4" fill="none"></path></g></g><mask></mask><g stroke-linecap="round" transform="translate(60.85479901261715 70.83228388720454) rotate(0 2.0181120420420484 2.4217359901467717)"><path d="M-0.34 0.08 C0.78 -0.69, 1.94 0.27, 4.53 -0.27 M0.11 0.07 C1.37 0.09, 2.8 -0.09, 3.96 -0.24 M3.98 0.1 C4.67 0.82, 4.06 1.47, 3.56 4.31 M4.41 -0.18 C4.29 1.43, 3.83 3.63, 4.44 4.62 M3.89 4.88 C2.56 5.42, 1.89 4.49, -0.67 5.6 M4.41 5.22 C2.62 5.19, 1.01 5, -0.1 4.47 M0.68 5.08 C-0.78 3.64, -0.78 0.84, 0.96 0.11 M0.09 5.21 C-0.02 3.7, 0.34 2.36, 0.33 0.06" stroke="#ffffff" stroke-width="4" fill="none"></path></g><g stroke-linecap="round" transform="translate(73.56891103627277 70.42863684363874) rotate(0 1.91720797963535 2.219927865337013)"><path d="M-0.45 0.3 C0.51 0, 2.09 0.52, 3.56 -0.01 M0.15 -0.33 C0.95 0.34, 1.46 0.31, 3.67 -0.1 M3.54 0.25 C4.22 1.49, 3.95 2.87, 4.43 4.45 M4.19 0.42 C4.03 1.54, 4.18 2.38, 4.16 4.49 M4.31 4.99 C3.1 4.9, 1.51 3.81, 0.43 3.88 M3.84 4.62 C2.9 4.52, 2.22 4.47, 0.25 4.74 M0.15 4.78 C-0.45 2.59, -0.35 1.68, -0.44 0.26 M0 4.64 C0.16 2.87, 0.23 0.71, -0.17 0.11" stroke="#ffffff" stroke-width="4" fill="none"></path></g></svg>
